svg/logo/wechat_line.svg

<?xml version="1.0" encoding="UTF-8"?>
<svg width="24px" height="24px" viewBox="0 0 24 24" version="1.1" xmlns="http://www.w3.org/2000/svg" xmlns:xlink="http://www.w3.org/1999/xlink">
    <title>wechat_line</title>
    <g id="页面-1" stroke="none" stroke-width="1" fill="none" fill-rule="evenodd">
        <g id="Brand" transform="translate(-816.000000, -0.000000)" fill-rule="nonzero">
            <g id="wechat_line" transform="translate(816.000000, 0.000000)">
                 <path d="M24,0 L24,24 L0,24 L0,0 L24,0 Z M12.5934901,23.257841 L12.5819402,23.2595131 L12.5108777,23.2950439 L12.4918791,23.2987469 L12.4918791,23.2987469 L12.4767152,23.2950439 L12.4056548,23.2595131 C12.3958229,23.2563662 12.3870493,23.2590235 12.3821421,23.2649074 L12.3780323,23.275831 L12.360941,23.7031097 L12.3658947,23.7234994 L12.3769048,23.7357139 L12.4804777,23.8096931 L12.4953491,23.8136134 L12.4953491,23.8136134 L12.5071152,23.8096931 L12.6106902,23.7357139 L12.6232938,23.7196733 L12.6232938,23.7196733 L12.6266527,23.7031097 L12.609561,23.275831 C12.6075724,23.2657013 12.6010112,23.2592993 12.5934901,23.257841 L12.5934901,23.257841 Z M12.8583906,23.1452862 L12.8445485,23.1473072 L12.6598443,23.2396597 L12.6498822,23.2499052 L12.6498822,23.2499052 L12.6471943,23.2611114 L12.6650943,23.6906389 L12.6699349,23.7034178 L12.6699349,23.7034178 L12.678386,23.7104931 L12.8793402,23.8032389 C12.8914285,23.8068999 12.9022333,23.8029875 12.9078286,23.7952264 L12.9118235,23.7811639 L12.8776777,23.1665331 C12.8752882,23.1545897 12.8674102,23.1470016 12.8583906,23.1452862 L12.8583906,23.1452862 Z M12.1430473,23.1473072 C12.1332178,23.1423925 12.1221763,23.1452606 12.1156365,23.1525954 L12.1099173,23.1665331 L12.0757714,23.7811639 C12.0751323,23.7926639 12.0828099,23.8018602 12.0926481,23.8045676 L12.108256,23.8032389 L12.3092106,23.7104931 L12.3186497,23.7024347 L12.3186497,23.7024347 L12.3225043,23.6906389 L12.340401,23.2611114 L12.337245,23.2485176 L12.337245,23.2485176 L12.3277531,23.2396597 L12.1430473,23.1473072 Z" id="MingCute" fill-rule="nonzero"></path>
                <path d="M10,3 C14.0711,3 17.7,5.67053 17.9824,9.3685 C20.2862,10.2297 22,12.1789 22,14.6285 C22,16.4955 20.9737,18.0999 19.4809,19.1207 C19.4565,19.26655 19.454325,19.41305 19.45825,19.55975 L19.4722,20 L19.4722,20 C19.4722,20.5523 19.0245,21 18.4722,21 C17.7145,21 17.0123,20.7532 16.418,20.2902 C16.0578,20.3415 15.6884,20.3681 15.3125,20.3681 C12.5459,20.3681 9.99138,18.877 9.02908,16.6169 C8.87636,16.6012 8.7249,16.5818 8.57481,16.5588 C7.85947,17.1257 7.03533,17.4444 6.11111,17.4444 C5.55883,17.4444 5.11111,16.9967 5.11111,16.4444 L5.11603833,16.2406824 L5.11603833,16.2406824 L5.13418,15.830575 C5.1389175,15.625575 5.13006,15.4216 5.07568,15.2229 C3.24799,14.004 2,12.0725 2,9.83333 C2,5.89642 5.76018,3 10,3 Z M15.3125,10.8889 C12.5452,10.8889 10.625,12.7262 10.625,14.6285 C10.625,16.5308 12.5452,18.3681 15.3125,18.3681 C15.6846,18.3681 16.0454,18.3333 16.3906,18.268 C16.8249,18.1859 17.2098,18.3676 17.5404,18.6282 C17.6399,18.195 17.865,17.7856 18.2466,17.5397 C19.3632,16.8203 20,15.7528 20,14.6285 C20,12.7262 18.0798,10.8889 15.3125,10.8889 Z M10,5 C6.50783,5 4,7.32693 4,9.83333 C4,11.31 4.8367,12.6909 6.26382,13.6104 C6.7954,13.9529 7.02319,14.5672 7.09478,15.1689 L7.57628968,14.8272632 C7.8841508,14.618636 8.206234,14.46094 8.62577,14.5387 C8.68216,11.2525 11.8292,8.88892 15.3125,8.88892 C15.505,8.88892 15.6965,8.89614 15.8865,8.91033 C15.3608,6.78396 13.0577,5 10,5 Z M13.62,13 C14.1723,13 14.62,13.4477 14.62,14 C14.62,14.5523 14.1723,15 13.62,15 C13.0677,15 12.62,14.5523 12.62,14 C12.62,13.4477 13.0677,13 13.62,13 Z M17,13 C17.5523,13 18,13.4477 18,14 C18,14.5523 17.5523,15 17,15 C16.4477,15 16,14.5523 16,14 C16,13.4477 16.4477,13 17,13 Z M8,7 C8.55228,7 9,7.44772 9,8 C9,8.55228 8.55228,9 8,9 C7.44772,9 7,8.55228 7,8 C7,7.44772 7.44772,7 8,7 Z M12,7 C12.5523,7 13,7.44772 13,8 C13,8.55228 12.5523,9 12,9 C11.4477,9 11,8.55228 11,8 C11,7.44772 11.4477,7 12,7 Z" id="形状" fill="#09244B"></path>
            </g>
        </g>
    </g>
</svg>

<svg xmlns="http://www.w3.org/2000/svg" width="24" height="24"><g fill="none" fill-rule="nonzero"><path d="M24 0v24H0V0h24ZM12.593 23.258l-.011.002-.071.035-.02.004-.014-.004-.071-.035c-.01-.004-.019-.001-.024.005l-.004.01-.017.428.005.02.01.013.104.074.015.004.012-.004.104-.074.012-.016.004-.017-.017-.427c-.002-.01-.009-.017-.017-.018Zm.265-.113-.013.002-.185.093-.01.01-.003.011.018.43.005.012.008.007.201.093c.012.004.023 0 .029-.008l.004-.014-.034-.614c-.003-.012-.01-.02-.02-.022Zm-.715.002a.023.023 0 0 0-.027.006l-.006.014-.034.614c0 .012.007.02.017.024l.015-.002.201-.093.01-.008.004-.011.017-.43-.003-.012-.01-.01-.184-.092Z"/><path fill="#09244B" d="M10 3c4.071 0 7.7 2.67 7.982 6.368 2.304.862 4.018 2.81 4.018 5.26 0 1.867-1.026 3.472-2.52 4.493a2.28 2.28 0 0 0-.022.439l.014.44a1 1 0 0 1-1 1c-.758 0-1.46-.247-2.054-.71a7.84 7.84 0 0 1-1.105.078c-2.767 0-5.322-1.491-6.284-3.751a9.231 9.231 0 0 1-.454-.058c-.716.567-1.54.885-2.464.885a1 1 0 0 1-1-1l.005-.203.018-.41a2.1 2.1 0 0 0-.058-.608C3.248 14.004 2 12.073 2 9.833 2 5.896 5.76 3 10 3Zm5.313 7.889c-2.768 0-4.688 1.837-4.688 3.74 0 1.902 1.92 3.74 4.688 3.74a5.8 5.8 0 0 0 1.078-.101c.434-.082.819.1 1.15.36.099-.433.324-.842.706-1.088C19.363 16.82 20 15.753 20 14.629c0-1.903-1.92-3.74-4.687-3.74ZM10 5C6.508 5 4 7.327 4 9.833c0 1.477.837 2.858 2.264 3.777.531.343.76.957.83 1.559l.482-.342c.308-.208.63-.366 1.05-.288.056-3.286 3.203-5.65 6.687-5.65.192 0 .383.007.573.021C15.362 6.784 13.059 5 10 5Zm3.62 8a1 1 0 1 1 0 2 1 1 0 0 1 0-2ZM17 13a1 1 0 1 1 0 2 1 1 0 0 1 0-2ZM8 7a1 1 0 1 1 0 2 1 1 0 0 1 0-2Zm4 0a1 1 0 1 1 0 2 1 1 0 0 1 0-2Z"/></g></svg>
